public/img/logo.svg

<?xml version="1.0" encoding="UTF-8"?>
<svg width="150px" height="108px" viewBox="0 0 150 108" version="1.1" xmlns="http://www.w3.org/2000/svg" xmlns:xlink="http://www.w3.org/1999/xlink">
    <g  stroke="none" stroke-width="1" fill="none" fill-rule="evenodd">
        <g id="Home-Tablet" transform="translate(-479.000000, -63.000000)" fill="#FFFFFF">
            <g  transform="translate(345.000000, -44.000000)">
                <g id="TheAtomicGuns" transform="translate(134.000000, 107.000000)">
                    <path d="M63.770238,78.0594497 L63.770238,106.965793 C63.770238,108.317748 61.7424578,108.317748 61.7424578,106.965793 L61.7424578,78.0594497 C61.7424578,76.7074944 63.770238,76.7074944 63.770238,78.0594497 Z" id="Shape" fill-rule="nonzero"></path>
                    <path d="M90.6277095,78.0594497 L90.6277095,106.965793 C90.6277095,108.317748 88.5999292,108.317748 88.5999292,106.965793 L88.5999292,78.0594497 C88.5999292,76.7074944 90.6277095,76.7074944 90.6277095,78.0594497 Z" id="Shape" fill-rule="nonzero"></path>
                    <polygon id="Shape" points="63.8259754 2.97679595 66.2465717 2.97679595 66.2465717 1.73374084 60.0544103 1.73374084 60.0544103 2.97679595 62.4750066 2.97679595 62.4750066 9.37003026 63.8259754 9.37003026"></polygon>
                    <polygon id="Shape" points="78.0257454 6.15349235 78.0257454 9.37003026 79.3660975 9.37003026 79.3660975 1.73374084 78.0257454 1.73374084 78.0257454 4.90778114 74.3842343 4.90778114 74.3842343 1.73374084 73.0438822 1.73374084 73.0438822 9.37003026 74.3842343 9.37003026 74.3842343 6.15349235"></polygon>
                    <polygon id="Shape" points="92.3714943 1.73374084 86.7128196 1.73374084 86.7128196 9.37003026 92.4245775 9.37003026 92.4245775 8.16947276 88.0531717 8.16947276 88.0531717 6.11896305 91.8804742 6.11896305 91.8804742 4.92106164 88.0531717 4.92106164 88.0531717 2.93429834 92.3714943 2.93429834"></polygon>
                    <path d="M10.0659117,1.73639694 L10.0499867,16.5707192 C10.0499867,17.9226744 8.02220649,17.9200183 8.02486066,16.5707192 L8.02486066,1.73639694 C8.04078563,0.381785601 10.0685659,0.384441701 10.0659117,1.73639694 Z" id="Shape" fill-rule="nonzero"></path>
                    <path d="M10.0606034,46.4571639 L10.0606034,106.965793 C10.0606034,108.317748 8.03282314,108.317748 8.03547731,106.965793 L8.03547731,46.4571639 C8.03547731,45.1025526 10.0632575,45.1052087 10.0606034,46.4571639 Z" id="Shape" fill-rule="nonzero"></path>
                    <path d="M36.9127665,1.73639694 L36.9127665,16.5707192 C36.9127665,17.9226744 34.8823321,17.9200183 34.8849863,16.5707192 L34.9009113,1.73639694 C34.8982571,0.381785601 36.9260373,0.384441701 36.9127665,1.73639694 Z" id="Shape" fill-rule="nonzero"></path>
                    <path d="M36.9127665,78.0594497 L36.9127665,106.965793 C36.9127665,108.317748 34.8849863,108.317748 34.8849863,106.965793 L34.8849863,78.0594497 C34.8902946,76.7048383 36.9127665,76.7074944 36.9127665,78.0594497 Z" id="Shape" fill-rule="nonzero"></path>
                    <path d="M117.498452,1.73639694 L117.482527,16.5707192 C117.482527,17.9226744 115.454747,17.9200183 115.457401,16.5707192 L115.47598,1.73374084 C115.47598,0.381785601 117.501106,0.384441701 117.498452,1.73639694 Z" id="Shape" fill-rule="nonzero"></path>
                    <path d="M117.490489,78.0594497 L117.490489,106.965793 C117.490489,108.317748 115.465363,108.317748 115.465363,106.965793 L115.465363,78.0594497 C115.47598,76.7048383 117.490489,76.7074944 117.490489,78.0594497 Z" id="Shape" fill-rule="nonzero"></path>
                    <path d="M144.358577,1.73639694 L144.342652,16.5707192 C144.342652,17.9226744 142.314872,17.9200183 142.317526,16.5707192 L142.333451,1.73639694 C142.333451,0.381785601 144.361232,0.384441701 144.358577,1.73639694 Z" id="Shape" fill-rule="nonzero"></path>
                    <path d="M144.355923,46.4571639 L144.355923,106.965793 C144.355923,108.317748 142.330797,108.317748 142.330797,106.965793 L142.330797,46.4571639 C142.328143,45.1025526 144.355923,45.1052087 144.355923,46.4571639 Z" id="Shape" fill-rule="nonzero"></path>
                    <path d="M108.997169,37.357363 L114.623994,37.357363 L114.623994,25.6492713 L108.997169,25.6492713 L108.997169,22.9931706 L123.998496,22.9931706 L123.998496,25.6492713 L118.371671,25.6492713 L118.371671,37.357363 L123.998496,37.357363 L123.998496,40.0134637 L108.997169,40.0134637 L108.997169,37.357363 Z M142.954525,40.3162592 C141.379125,40.3266283 139.829275,39.9177998 138.463682,39.1316383 C137.178511,38.3768613 136.115466,37.2956306 135.382199,35.9974395 C134.620367,34.6401205 134.224324,33.107879 134.232947,31.551127 C134.219399,29.9824817 134.611655,28.4370147 135.371583,27.0649729 C136.109954,25.7516349 137.184568,24.6588164 138.484916,23.8989009 C139.892628,23.0926947 141.489252,22.675601 143.111121,22.6903751 C144.703619,22.7027703 146.026276,22.9462462 147.079094,23.4208028 C148.106683,23.8740601 149.03889,24.5185187 149.826152,25.3199148 L147.437406,28.0716351 C146.834867,27.5013383 146.149375,27.0258001 145.404317,26.6612456 C144.678034,26.3193097 143.884557,26.1441636 143.081925,26.1486182 C141.73208,26.1369689 140.441655,26.7033921 139.535964,27.7050932 C138.62072,28.7376137 138.124606,30.0754459 138.145183,31.4555073 C138.115874,32.8553084 138.604585,34.2165604 139.517385,35.2776362 C140.418719,36.3005888 141.719136,36.8819887 143.081925,36.8712966 C143.934273,36.8921478 144.779378,36.7100763 145.547642,36.3400765 C146.283237,35.9542303 146.959837,35.46497 147.556843,34.8871894 L149.94559,37.2962727 C149.125272,38.2200453 148.133791,38.9759252 147.026011,39.5220851 C145.928957,40.0409101 144.571795,40.3056348 142.954525,40.3162592 Z M81.1496948,40.0240881 L81.1496948,22.9825462 L85.1893303,22.9825462 L89.6642484,30.1885473 L94.1391666,22.9825462 L98.1788021,22.9825462 L98.1788021,40.0240881 L94.4629744,40.0240881 L94.4629744,28.8976824 L89.6642484,36.1807104 L84.8230558,28.9747093 L84.8230558,40.0267442 L81.1496948,40.0240881 Z M34.0515792,40.0240881 L34.0515792,26.4407893 L28.8706538,26.4407893 L28.8706538,22.9878584 L42.9775281,22.9878584 L42.9775281,26.4407893 L37.7966027,26.4407893 L37.7966027,40.0240881 L34.0515792,40.0240881 Z M6.77740423,32.8898017 L11.3027515,32.8898017 L9.0440591,27.3651123 L6.77740423,32.8898017 Z M0.0623728214,40.0240881 L7.36132,22.8630217 L10.8117314,22.8630217 L18.1106786,40.0240881 L14.1957887,40.0240881 L12.6404494,36.2019592 L5.43970627,36.2019592 L3.88171282,40.0240881 L0.0623728214,40.0240881 Z M58.5282668,34.4462767 L65.7741308,27.197778 C64.9107161,26.5511795 63.8612978,26.2017392 62.7828895,26.2017402 C59.9535522,26.2017402 57.6577015,28.570982 57.6577015,31.4953488 C57.6545041,32.5436772 57.9570579,33.5701573 58.5282668,34.4489328 L58.5282668,34.4462767 Z M67.1357162,28.703787 L59.9429355,35.9151004 C60.7775049,36.4924414 61.7683253,36.8010247 62.7828895,36.7995819 C65.6122268,36.7995819 67.9054233,34.4303401 67.9054233,31.5086293 C67.9102403,30.521638 67.6439803,29.552295 67.1357162,28.7064431 L67.1357162,28.703787 Z M72.8474741,22.9878584 L69.8562329,25.9812838 C71.15292,27.526804 71.8642653,29.479965 71.865434,31.4980049 C71.865434,36.3560131 67.7992568,40.2923543 62.7828895,40.2923543 C60.8209418,40.2987318 58.9078715,39.6801115 57.3206228,38.5260473 L53.6525701,42.1994345 L52.2193223,40.7651402 L55.8263293,37.1528433 C54.4573102,35.5875942 53.7027815,33.5781386 53.7029992,31.4980049 C53.7029992,26.6399968 57.7691763,22.7009995 62.7855437,22.7009995 C64.8101248,22.694752 66.7806441,23.3545601 68.3937893,24.5788627 L71.4168805,21.5562201 L72.8474741,22.9878584 Z M36.6022295,71.2837369 C34.9706862,71.304361 33.3609215,70.9075687 31.925595,70.1309892 C30.6164787,69.4058765 29.5327241,68.3332789 28.7936831,67.0313197 C28.0271261,65.6512152 27.6337347,64.0948113 27.6523932,62.5159486 C27.6394843,60.9436623 28.0423876,59.3959338 28.8202247,58.0297945 C29.5744602,56.7150788 30.6621561,55.6229237 31.9733699,54.8637225 C33.3742181,54.0596152 34.9634547,53.642537 36.578342,53.6551967 C37.879963,53.6241762 39.1764982,53.8284261 40.4056445,54.2581316 C41.4556217,54.6598309 42.4247954,55.2473379 43.2668318,55.9925653 L40.9072813,58.8399052 C40.3153246,58.3187071 39.6488439,57.8889831 38.9299301,57.5649769 C38.1446136,57.2477577 37.3029089,57.0941157 36.4562506,57.1134398 C35.1310554,57.1204214 33.8711139,57.6900296 32.9899142,58.6805392 C32.0664961,59.7061184 31.5591351,61.0398605 31.567283,62.4203289 C31.5938246,64.0564869 32.0768822,65.3420397 33.0138016,66.3380774 C33.950721,67.3341152 35.190215,67.8414304 36.7296293,67.8706475 C37.3785284,67.8720743 38.0244381,67.7826716 38.6485889,67.6050374 C39.2244767,67.4439183 39.7684982,67.1851846 40.2570114,66.8400804 L40.2570114,64.4044361 L36.480138,64.4044361 L36.480138,61.1799299 L43.8772892,61.1799299 L43.8772892,68.5851386 C42.942879,69.3836104 41.8874896,70.0282445 40.7506857,70.494875 C39.4313648,71.0221423 38.022854,71.2899818 36.6022295,71.2837369 Z M62.7032646,71.2571759 C60.3941431,71.2571759 58.5937362,70.6223678 57.3020437,69.3527517 C56.0103512,68.0831356 55.3538883,66.194648 55.332655,63.6872889 L55.332655,53.9500239 L59.0776785,53.9500239 L59.0776785,63.5890132 C59.0776785,64.98081 59.4147571,66.0273136 60.0570645,66.7364925 C60.6993718,67.4456714 61.599133,67.7989328 62.7510395,67.7989328 C63.9029461,67.7989328 64.8027072,67.4536397 65.4450146,66.7683657 C66.0873219,66.0830917 66.413784,65.060493 66.4244006,63.7085378 L66.4244006,53.9500239 L70.169424,53.9500239 L70.169424,63.5651083 C70.1446519,66.1432967 69.472264,68.0707404 68.1522605,69.3474395 C66.8322569,70.6241385 65.015925,71.2607173 62.7032646,71.2571759 Z M82.099885,70.9915658 L82.099885,53.9500239 L85.5502964,53.9500239 L93.5287092,64.4416215 L93.5287092,53.9500239 L97.2259577,53.9500239 L97.2259577,70.9915658 L94.0409626,70.9915658 L85.7944793,60.1573312 L85.7944793,70.9915658 L82.099885,70.9915658 Z M116.105016,71.2332709 C114.803766,71.2336844 113.512643,71.0044033 112.290985,70.5559653 C111.035211,70.0930917 109.877414,69.3984469 108.877732,68.5081117 L111.091303,65.852011 C111.811961,66.4658119 112.616282,66.9737984 113.48005,67.3606762 C114.33081,67.7312012 115.248842,67.9219945 116.176679,67.9211134 C116.806088,67.9523029 117.431314,67.8030238 117.978855,67.4908251 C118.389798,67.2420924 118.63903,66.7947634 118.634433,66.3141725 C118.671328,65.818268 118.419117,65.3455456 117.986818,65.1003345 C117.519685,64.7816024 116.591613,64.4478191 115.202601,64.0989845 C114.17908,63.862096 113.179544,63.5313416 112.216668,63.1109151 C111.434901,62.7779177 110.758622,62.237969 110.26055,61.5491279 C109.798726,60.8904149 109.56516,60.0050481 109.559851,58.8930272 C109.591701,57.278118 110.149075,56.0350629 111.234628,55.1160521 C112.32018,54.1970413 113.750774,53.7269114 115.518446,53.7083187 C116.691897,53.6995719 117.858411,53.8890442 118.968858,54.268756 C120.012702,54.631453 120.986719,55.1704735 121.848624,55.8624164 L119.903123,58.6858514 C119.205815,58.190914 118.454226,57.7774165 117.66301,57.4534207 C116.967954,57.1702602 116.226332,57.0189452 115.47598,57.0071958 C114.899986,56.9767846 114.329001,57.1282294 113.84367,57.4401402 C113.492543,57.6791859 113.283526,58.0776032 113.286296,58.5025804 C113.233122,59.0506886 113.523483,59.574775 114.01619,59.8200064 C114.536406,60.1228018 115.516677,60.4503876 116.957003,60.8027636 C118.692825,61.225969 120.02433,61.8200502 120.951517,62.5850072 C121.878705,63.3499642 122.347607,64.4602142 122.358223,65.9157574 C122.326374,67.6661277 121.745112,68.9676171 120.60913,69.8760035 C119.473149,70.7843899 117.973547,71.2253026 116.105016,71.2412392 L116.105016,71.2332709 Z" id="Shape" fill-rule="nonzero"></path>
                </g>
            </g>
        </g>
    </g>
</svg>

<svg width="150" height="108" xmlns="http://www.w3.org/2000/svg"><g fill="#FFF" fill-rule="evenodd"><path d="M63.77 78.06v28.906c0 1.352-2.028 1.352-2.028 0V78.059c0-1.352 2.028-1.352 2.028 0zm26.858 0v28.906c0 1.352-2.028 1.352-2.028 0V78.059c0-1.352 2.028-1.352 2.028 0z" fill-rule="nonzero"/><path d="M63.826 2.977h2.42V1.734h-6.192v1.243h2.421V9.37h1.351zm14.2 3.176V9.37h1.34V1.734h-1.34v3.174h-3.642V1.734h-1.34V9.37h1.34V6.153zm14.345-4.419h-5.658V9.37h5.712v-1.2h-4.372V6.118h3.827V4.921h-3.827V2.934h4.318z"/><path d="M10.066 1.736l-.016 14.835c0 1.352-2.028 1.349-2.025 0V1.736c.016-1.354 2.044-1.352 2.04 0zm-.006 44.721v60.509c0 1.352-2.027 1.352-2.025 0V46.457c0-1.354 2.028-1.352 2.026 0zM36.913 1.736v14.835c0 1.352-2.03 1.349-2.028 0l.016-14.835c-.003-1.354 2.025-1.352 2.012 0zm0 76.324v28.906c0 1.352-2.028 1.352-2.028 0V78.059c.005-1.354 2.028-1.352 2.028 0zm80.585-76.324l-.015 14.835c0 1.352-2.028 1.349-2.026 0l.019-14.837c0-1.352 2.025-1.35 2.022.002zm-.008 76.324v28.906c0 1.352-2.025 1.352-2.025 0V78.059c.011-1.354 2.025-1.352 2.025 0zm26.869-76.324l-.016 14.835c0 1.352-2.028 1.349-2.025 0l.015-14.835c0-1.354 2.028-1.352 2.026 0zm-.003 44.721v60.509c0 1.352-2.025 1.352-2.025 0V46.457c-.003-1.354 2.025-1.352 2.025 0zm-35.359-9.1h5.627V25.65h-5.627v-2.656h15.001v2.656h-5.626v11.708h5.626v2.656h-15v-2.656zm33.958 2.96a8.884 8.884 0 0 1-4.491-1.185 8.46 8.46 0 0 1-3.082-3.135 8.983 8.983 0 0 1-1.15-4.446 9.097 9.097 0 0 1 1.14-4.486 8.48 8.48 0 0 1 3.113-3.166 9.141 9.141 0 0 1 4.626-1.209c1.593.013 2.915.256 3.968.73a8.867 8.867 0 0 1 2.747 1.9l-2.389 2.752a8.201 8.201 0 0 0-2.033-1.41 5.382 5.382 0 0 0-2.322-.513 4.725 4.725 0 0 0-3.546 1.556 5.53 5.53 0 0 0-1.39 3.75 5.68 5.68 0 0 0 1.371 3.823 4.702 4.702 0 0 0 3.565 1.593 5.38 5.38 0 0 0 2.466-.53 8.7 8.7 0 0 0 2.009-1.454l2.389 2.41a9.556 9.556 0 0 1-2.92 2.225c-1.097.519-2.454.784-4.071.794zm-61.805-.293V22.983h4.04l4.474 7.206 4.475-7.206h4.04v17.041h-3.716V28.898l-4.799 7.283-4.84-7.206v11.052l-3.674-.003zm-47.098 0V26.441H28.87v-3.453h14.107v3.453h-5.181v13.583h-3.745zM6.777 32.89h4.526l-2.259-5.525-2.267 5.525zM.062 40.024l7.3-17.161h3.45l7.299 17.161h-3.915l-1.556-3.822h-7.2l-1.558 3.822H.062zm58.466-5.578l7.246-7.248a4.99 4.99 0 0 0-2.991-.996c-2.83 0-5.125 2.369-5.125 5.293a5.39 5.39 0 0 0 .87 2.954v-.003zm8.608-5.742l-7.193 7.211a4.98 4.98 0 0 0 2.84.885c2.83 0 5.122-2.37 5.122-5.291a5.39 5.39 0 0 0-.77-2.803v-.002zm5.711-5.716l-2.99 2.993a8.591 8.591 0 0 1 2.008 5.517c0 4.858-4.066 8.794-9.082 8.794a9.237 9.237 0 0 1-5.462-1.766l-3.668 3.673-1.434-1.434 3.607-3.612a8.588 8.588 0 0 1-2.123-5.655c0-4.858 4.066-8.797 9.083-8.797a9.23 9.23 0 0 1 5.608 1.878l3.023-3.023 1.43 1.432zM36.602 71.284a9.573 9.573 0 0 1-4.676-1.153 8.133 8.133 0 0 1-3.132-3.1 9.078 9.078 0 0 1-1.142-4.515 8.919 8.919 0 0 1 1.168-4.486 8.608 8.608 0 0 1 3.153-3.166 9.107 9.107 0 0 1 4.605-1.209 10.816 10.816 0 0 1 3.828.603c1.05.402 2.019.99 2.86 1.735l-2.359 2.847a7.911 7.911 0 0 0-1.977-1.275 6.225 6.225 0 0 0-2.474-.452 4.672 4.672 0 0 0-3.466 1.568 5.54 5.54 0 0 0-1.423 3.74c.027 1.635.51 2.921 1.447 3.917s2.176 1.503 3.716 1.533a6.954 6.954 0 0 0 1.919-.266 5.23 5.23 0 0 0 1.608-.765v-2.436H36.48V61.18h7.397v7.405a11.584 11.584 0 0 1-3.126 1.91c-1.32.527-2.728.795-4.149.789zm26.101-.027c-2.309 0-4.11-.635-5.401-1.904-1.292-1.27-1.948-3.158-1.97-5.666V53.95h3.746v9.639c0 1.392.337 2.438.98 3.147.641.71 1.541 1.063 2.693 1.063 1.152 0 2.052-.345 2.694-1.03.642-.686.969-1.709.98-3.06V53.95h3.744v9.615c-.024 2.578-.697 4.506-2.017 5.782-1.32 1.277-3.136 1.914-5.449 1.91zm19.397-.265V53.95h3.45l7.979 10.492V53.95h3.697v17.042h-3.185l-8.247-10.835v10.835H82.1zm34.005.241a11.08 11.08 0 0 1-3.814-.677 10.692 10.692 0 0 1-3.413-2.048l2.213-2.656a9.968 9.968 0 0 0 2.39 1.509c.85.37 1.768.561 2.696.56a3.308 3.308 0 0 0 1.802-.43c.41-.249.66-.696.655-1.177a1.286 1.286 0 0 0-.647-1.214c-.467-.318-1.395-.652-2.784-1.001a17.095 17.095 0 0 1-2.986-.988 4.675 4.675 0 0 1-1.956-1.562c-.462-.659-.696-1.544-.701-2.656.032-1.615.59-2.858 1.675-3.777s2.516-1.39 4.283-1.408c1.174-.008 2.34.181 3.45.56a9.67 9.67 0 0 1 2.88 1.594l-1.945 2.824a11.209 11.209 0 0 0-2.24-1.233 6.048 6.048 0 0 0-2.187-.446 2.75 2.75 0 0 0-1.632.433 1.28 1.28 0 0 0-.558 1.063 1.328 1.328 0 0 0 .73 1.317c.52.303 1.5.63 2.941.983 1.736.423 3.067 1.017 3.995 1.782.927.765 1.396 1.875 1.406 3.33-.032 1.751-.613 3.053-1.749 3.961-1.136.908-2.635 1.35-4.504 1.365v-.008z" fill-rule="nonzero"/></g></svg>
